images/50434279.svg

<?xml version="1.0" encoding="UTF-8"?>
<svg xmlns="http://www.w3.org/2000/svg" xmlns:xlink="http://www.w3.org/1999/xlink" width="300pt" height="300pt" viewBox="0 0 300 300" version="1.1">
<defs>
<g>
<symbol overflow="visible" id="glyph0-0">
<path style="stroke:none;" d="M 0.453125 1.59375 L 0.453125 -6.34375 L 4.953125 -6.34375 L 4.953125 1.59375 Z M 0.953125 1.09375 L 4.453125 1.09375 L 4.453125 -5.84375 L 0.953125 -5.84375 Z M 0.953125 1.09375 "/>
</symbol>
<symbol overflow="visible" id="glyph0-1">
<path style="stroke:none;" d="M 3.546875 -5.953125 C 2.898438 -5.953125 2.382812 -5.710938 2 -5.234375 C 1.625 -4.753906 1.4375 -4.101562 1.4375 -3.28125 C 1.4375 -2.445312 1.625 -1.789062 2 -1.3125 C 2.382812 -0.832031 2.898438 -0.59375 3.546875 -0.59375 C 4.191406 -0.59375 4.703125 -0.832031 5.078125 -1.3125 C 5.453125 -1.789062 5.640625 -2.445312 5.640625 -3.28125 C 5.640625 -4.101562 5.453125 -4.753906 5.078125 -5.234375 C 4.703125 -5.710938 4.191406 -5.953125 3.546875 -5.953125 Z M 3.546875 -6.6875 C 4.460938 -6.6875 5.195312 -6.375 5.75 -5.75 C 6.300781 -5.132812 6.578125 -4.3125 6.578125 -3.28125 C 6.578125 -2.238281 6.300781 -1.410156 5.75 -0.796875 C 5.195312 -0.179688 4.460938 0.125 3.546875 0.125 C 2.617188 0.125 1.878906 -0.179688 1.328125 -0.796875 C 0.773438 -1.410156 0.5 -2.238281 0.5 -3.28125 C 0.5 -4.3125 0.773438 -5.132812 1.328125 -5.75 C 1.878906 -6.375 2.617188 -6.6875 3.546875 -6.6875 Z M 3.546875 -6.6875 "/>
</symbol>
<symbol overflow="visible" id="glyph0-2">
<path style="stroke:none;" d="M 0.890625 -6.5625 L 2.078125 -6.5625 L 4.984375 -1.078125 L 4.984375 -6.5625 L 5.84375 -6.5625 L 5.84375 0 L 4.65625 0 L 1.75 -5.484375 L 1.75 0 L 0.890625 0 Z M 0.890625 -6.5625 "/>
</symbol>
<symbol overflow="visible" id="glyph0-3">
<path style="stroke:none;" d="M 0.890625 -6.5625 L 1.765625 -6.5625 L 1.765625 -3.875 L 5 -3.875 L 5 -6.5625 L 5.890625 -6.5625 L 5.890625 0 L 5 0 L 5 -3.125 L 1.765625 -3.125 L 1.765625 0 L 0.890625 0 Z M 0.890625 -6.5625 "/>
</symbol>
</g>
</defs>
<g id="surface27569">
<rect x="0" y="0" width="300" height="300" style="fill:rgb(100%,100%,100%);fill-opacity:1;stroke:none;"/>
<path style="fill:none;stroke-width:1.2;stroke-linecap:butt;stroke-linejoin:miter;stroke:rgb(100%,0%,0%);stroke-opacity:1;stroke-miterlimit:10;" d="M 36.480469 133.746094 L 46.253906 128.8125 "/>
<path style="fill:none;stroke-width:1.2;stroke-linecap:butt;stroke-linejoin:miter;stroke:rgb(0%,0%,0%);stroke-opacity:1;stroke-miterlimit:10;" d="M 46.253906 128.8125 L 56.027344 123.878906 "/>
<path style="fill:none;stroke-width:1.2;stroke-linecap:butt;stroke-linejoin:miter;stroke:rgb(0%,0%,0%);stroke-opacity:1;stroke-miterlimit:10;" d="M 35.25 155.605469 L 35.863281 144.675781 "/>
<path style="fill:none;stroke-width:1.2;stroke-linecap:butt;stroke-linejoin:miter;stroke:rgb(100%,0%,0%);stroke-opacity:1;stroke-miterlimit:10;" d="M 35.863281 144.675781 L 36.480469 133.746094 "/>
<path style=" stroke:none;fill-rule:nonzero;fill:rgb(100%,100%,100%);fill-opacity:1;" d="M 32.480469 128.246094 L 40.480469 128.246094 L 40.480469 139.246094 L 32.480469 139.246094 Z M 32.480469 128.246094 "/>
<g style="fill:rgb(100%,0%,0%);fill-opacity:1;">
  <use xlink:href="#glyph0-1" x="32.480469" y="136.90918"/>
</g>
<path style="fill:none;stroke-width:1.2;stroke-linecap:butt;stroke-linejoin:miter;stroke:rgb(0%,0%,0%);stroke-opacity:1;stroke-miterlimit:10;" d="M 56.027344 123.878906 L 74.34375 135.875 "/>
<path style="fill:none;stroke-width:1.2;stroke-linecap:butt;stroke-linejoin:miter;stroke:rgb(0%,0%,0%);stroke-opacity:1;stroke-miterlimit:10;" d="M 74.34375 135.875 L 73.730469 146.804688 "/>
<path style="fill:none;stroke-width:1.2;stroke-linecap:butt;stroke-linejoin:miter;stroke:rgb(0%,0%,100%);stroke-opacity:1;stroke-miterlimit:10;" d="M 73.730469 146.804688 L 73.113281 157.734375 "/>
<path style="fill:none;stroke-width:1;stroke-linecap:butt;stroke-linejoin:miter;stroke:rgb(0%,0%,0%);stroke-opacity:1;stroke-miterlimit:10;" d="M 74.34375 135.875 L 74.34375 135.875 M 77.214844 135.007812 L 76.746094 134.078125 M 80.089844 134.144531 L 79.148438 132.28125 M 82.960938 133.277344 L 81.550781 130.484375 M 85.832031 132.410156 L 83.953125 128.6875 M 88.707031 131.546875 L 86.355469 126.890625 M 91.578125 130.679688 L 88.757812 125.09375 M 94.449219 129.816406 L 91.160156 123.296875 M 95.632812 129.457031 L 92.148438 122.558594 "/>
<path style="fill:none;stroke-width:1.2;stroke-linecap:butt;stroke-linejoin:miter;stroke:rgb(0%,0%,100%);stroke-opacity:1;stroke-miterlimit:10;" d="M 73.113281 157.734375 L 63.339844 162.667969 "/>
<path style="fill:none;stroke-width:1.2;stroke-linecap:butt;stroke-linejoin:miter;stroke:rgb(0%,0%,0%);stroke-opacity:1;stroke-miterlimit:10;" d="M 63.339844 162.667969 L 53.566406 167.601562 "/>
<path style="fill:none;stroke-width:1.2;stroke-linecap:butt;stroke-linejoin:miter;stroke:rgb(0%,0%,100%);stroke-opacity:1;stroke-miterlimit:10;" d="M 73.113281 157.734375 L 82.273438 163.734375 "/>
<path style="fill:none;stroke-width:1.2;stroke-linecap:butt;stroke-linejoin:miter;stroke:rgb(0%,0%,0%);stroke-opacity:1;stroke-miterlimit:10;" d="M 82.273438 163.734375 L 91.433594 169.730469 "/>
<path style=" stroke:none;fill-rule:nonzero;fill:rgb(100%,100%,100%);fill-opacity:1;" d="M 70.113281 152.234375 L 77.113281 152.234375 L 77.113281 163.234375 L 70.113281 163.234375 Z M 70.113281 152.234375 "/>
<g style="fill:rgb(0%,0%,100%);fill-opacity:1;">
  <use xlink:href="#glyph0-2" x="70.113281" y="160.897461"/>
</g>
<path style="fill:none;stroke-width:1.2;stroke-linecap:butt;stroke-linejoin:miter;stroke:rgb(0%,0%,0%);stroke-opacity:1;stroke-miterlimit:10;" d="M 53.566406 167.601562 L 35.25 155.605469 "/>
<path style="fill:none;stroke-width:1.2;stroke-linecap:butt;stroke-linejoin:miter;stroke:rgb(0%,0%,0%);stroke-opacity:1;stroke-miterlimit:10;" d="M 91.433594 169.730469 L 90.816406 180.660156 "/>
<path style="fill:none;stroke-width:1.2;stroke-linecap:butt;stroke-linejoin:miter;stroke:rgb(0%,0%,100%);stroke-opacity:1;stroke-miterlimit:10;" d="M 90.816406 180.660156 L 90.203125 191.59375 "/>
<path style="fill:none;stroke-width:1.2;stroke-linecap:butt;stroke-linejoin:miter;stroke:rgb(0%,0%,0%);stroke-opacity:1;stroke-miterlimit:10;" d="M 96.453125 172.207031 L 95.960938 180.949219 "/>
<path style="fill:none;stroke-width:1.2;stroke-linecap:butt;stroke-linejoin:miter;stroke:rgb(0%,0%,100%);stroke-opacity:1;stroke-miterlimit:10;" d="M 95.960938 180.949219 L 95.46875 189.695312 "/>
<path style="fill:none;stroke-width:1.2;stroke-linecap:butt;stroke-linejoin:miter;stroke:rgb(0%,0%,0%);stroke-opacity:1;stroke-miterlimit:10;" d="M 110.980469 159.867188 L 91.433594 169.730469 "/>
<path style="fill:none;stroke-width:1.2;stroke-linecap:butt;stroke-linejoin:miter;stroke:rgb(0%,0%,100%);stroke-opacity:1;stroke-miterlimit:10;" d="M 90.203125 191.59375 L 108.519531 203.585938 "/>
<path style=" stroke:none;fill-rule:nonzero;fill:rgb(100%,100%,100%);fill-opacity:1;" d="M 87.203125 186.09375 L 94.203125 186.09375 L 94.203125 197.09375 L 87.203125 197.09375 Z M 87.203125 186.09375 "/>
<g style="fill:rgb(0%,0%,100%);fill-opacity:1;">
  <use xlink:href="#glyph0-2" x="87.203125" y="194.756836"/>
</g>
<path style="fill:none;stroke-width:1.2;stroke-linecap:butt;stroke-linejoin:miter;stroke:rgb(0%,0%,100%);stroke-opacity:1;stroke-miterlimit:10;" d="M 108.519531 203.585938 L 118.292969 198.65625 "/>
<path style="fill:none;stroke-width:1.2;stroke-linecap:butt;stroke-linejoin:miter;stroke:rgb(0%,0%,0%);stroke-opacity:1;stroke-miterlimit:10;" d="M 118.292969 198.65625 L 128.066406 193.722656 "/>
<path style="fill:none;stroke-width:1.2;stroke-linecap:butt;stroke-linejoin:miter;stroke:rgb(0%,0%,100%);stroke-opacity:1;stroke-miterlimit:10;" d="M 108.152344 198 L 115.972656 194.054688 "/>
<path style="fill:none;stroke-width:1.2;stroke-linecap:butt;stroke-linejoin:miter;stroke:rgb(0%,0%,0%);stroke-opacity:1;stroke-miterlimit:10;" d="M 115.972656 194.054688 L 123.789062 190.109375 "/>
<path style=" stroke:none;fill-rule:nonzero;fill:rgb(100%,100%,100%);fill-opacity:1;" d="M 105.519531 198.085938 L 112.519531 198.085938 L 112.519531 209.085938 L 105.519531 209.085938 Z M 105.519531 198.085938 "/>
<g style="fill:rgb(0%,0%,100%);fill-opacity:1;">
  <use xlink:href="#glyph0-2" x="105.519531" y="206.749023"/>
</g>
<path style="fill:none;stroke-width:1.2;stroke-linecap:butt;stroke-linejoin:miter;stroke:rgb(0%,0%,0%);stroke-opacity:1;stroke-miterlimit:10;" d="M 128.066406 193.722656 L 129.296875 171.859375 "/>
<path style="fill:none;stroke-width:1.2;stroke-linecap:butt;stroke-linejoin:miter;stroke:rgb(0%,0%,0%);stroke-opacity:1;stroke-miterlimit:10;" d="M 129.296875 171.859375 L 110.980469 159.867188 "/>
<path style="fill:none;stroke-width:1.2;stroke-linecap:butt;stroke-linejoin:miter;stroke:rgb(0%,0%,0%);stroke-opacity:1;stroke-miterlimit:10;" d="M 130.285156 166.351562 L 115.632812 156.753906 "/>
<path style="fill:none;stroke-width:1.2;stroke-linecap:butt;stroke-linejoin:miter;stroke:rgb(0%,0%,0%);stroke-opacity:1;stroke-miterlimit:10;" d="M 148.84375 161.996094 L 129.296875 171.859375 "/>
<path style="fill:none;stroke-width:1.2;stroke-linecap:butt;stroke-linejoin:miter;stroke:rgb(0%,0%,0%);stroke-opacity:1;stroke-miterlimit:10;" d="M 110.980469 159.867188 L 112.207031 138.003906 "/>
<path style="fill:none;stroke-width:1.2;stroke-linecap:butt;stroke-linejoin:miter;stroke:rgb(0%,0%,0%);stroke-opacity:1;stroke-miterlimit:10;" d="M 112.207031 138.003906 L 131.753906 128.140625 "/>
<path style="fill:none;stroke-width:1.2;stroke-linecap:butt;stroke-linejoin:miter;stroke:rgb(0%,0%,0%);stroke-opacity:1;stroke-miterlimit:10;" d="M 116.484375 141.617188 L 132.121094 133.726562 "/>
<path style="fill:none;stroke-width:1.2;stroke-linecap:butt;stroke-linejoin:miter;stroke:rgb(0%,0%,0%);stroke-opacity:1;stroke-miterlimit:10;" d="M 131.753906 128.140625 L 150.074219 140.132812 "/>
<path style="fill:none;stroke-width:1.2;stroke-linecap:butt;stroke-linejoin:miter;stroke:rgb(0%,0%,0%);stroke-opacity:1;stroke-miterlimit:10;" d="M 150.074219 140.132812 L 148.84375 161.996094 "/>
<path style="fill:none;stroke-width:1.2;stroke-linecap:butt;stroke-linejoin:miter;stroke:rgb(0%,0%,0%);stroke-opacity:1;stroke-miterlimit:10;" d="M 144.804688 142.03125 L 143.820312 159.519531 "/>
<path style="fill:none;stroke-width:1.2;stroke-linecap:butt;stroke-linejoin:miter;stroke:rgb(0%,0%,0%);stroke-opacity:1;stroke-miterlimit:10;" d="M 150.074219 140.132812 L 169.621094 130.269531 "/>
<path style="fill:none;stroke-width:1.2;stroke-linecap:butt;stroke-linejoin:miter;stroke:rgb(0%,0%,0%);stroke-opacity:1;stroke-miterlimit:10;" d="M 169.621094 130.269531 L 187.9375 142.265625 "/>
<path style="fill:none;stroke-width:1.2;stroke-linecap:butt;stroke-linejoin:miter;stroke:rgb(0%,0%,0%);stroke-opacity:1;stroke-miterlimit:10;" d="M 174.273438 127.160156 L 188.925781 136.753906 "/>
<path style="fill:none;stroke-width:1.2;stroke-linecap:butt;stroke-linejoin:miter;stroke:rgb(0%,0%,0%);stroke-opacity:1;stroke-miterlimit:10;" d="M 170.847656 108.40625 L 169.621094 130.269531 "/>
<path style="fill:none;stroke-width:1.2;stroke-linecap:butt;stroke-linejoin:miter;stroke:rgb(0%,0%,0%);stroke-opacity:1;stroke-miterlimit:10;" d="M 187.9375 142.265625 L 207.484375 132.398438 "/>
<path style="fill:none;stroke-width:1.2;stroke-linecap:butt;stroke-linejoin:miter;stroke:rgb(0%,0%,0%);stroke-opacity:1;stroke-miterlimit:10;" d="M 207.484375 132.398438 L 208.714844 110.539062 "/>
<path style="fill:none;stroke-width:1.2;stroke-linecap:butt;stroke-linejoin:miter;stroke:rgb(0%,0%,0%);stroke-opacity:1;stroke-miterlimit:10;" d="M 202.464844 129.921875 L 203.445312 112.433594 "/>
<path style="fill:none;stroke-width:1.2;stroke-linecap:butt;stroke-linejoin:miter;stroke:rgb(0%,0%,0%);stroke-opacity:1;stroke-miterlimit:10;" d="M 207.484375 132.398438 L 225.800781 144.394531 "/>
<path style="fill:none;stroke-width:1.2;stroke-linecap:butt;stroke-linejoin:miter;stroke:rgb(0%,0%,0%);stroke-opacity:1;stroke-miterlimit:10;" d="M 208.714844 110.539062 L 190.394531 98.542969 "/>
<path style="fill:none;stroke-width:1.2;stroke-linecap:butt;stroke-linejoin:miter;stroke:rgb(0%,0%,0%);stroke-opacity:1;stroke-miterlimit:10;" d="M 190.394531 98.542969 L 170.847656 108.40625 "/>
<path style="fill:none;stroke-width:1.2;stroke-linecap:butt;stroke-linejoin:miter;stroke:rgb(0%,0%,0%);stroke-opacity:1;stroke-miterlimit:10;" d="M 190.761719 104.128906 L 175.125 112.019531 "/>
<path style="fill:none;stroke-width:1.2;stroke-linecap:butt;stroke-linejoin:miter;stroke:rgb(0%,0%,0%);stroke-opacity:1;stroke-miterlimit:10;" d="M 170.847656 108.40625 L 152.53125 96.414062 "/>
<path style="fill:none;stroke-width:1.2;stroke-linecap:butt;stroke-linejoin:miter;stroke:rgb(0%,0%,0%);stroke-opacity:1;stroke-miterlimit:10;" d="M 226.960938 146.695312 L 236.734375 141.761719 "/>
<path style="fill:none;stroke-width:1.2;stroke-linecap:butt;stroke-linejoin:miter;stroke:rgb(100%,0%,0%);stroke-opacity:1;stroke-miterlimit:10;" d="M 236.734375 141.761719 L 246.507812 136.828125 "/>
<path style="fill:none;stroke-width:1.2;stroke-linecap:butt;stroke-linejoin:miter;stroke:rgb(0%,0%,0%);stroke-opacity:1;stroke-miterlimit:10;" d="M 224.640625 142.09375 L 234.414062 137.160156 "/>
<path style="fill:none;stroke-width:1.2;stroke-linecap:butt;stroke-linejoin:miter;stroke:rgb(100%,0%,0%);stroke-opacity:1;stroke-miterlimit:10;" d="M 234.414062 137.160156 L 244.1875 132.230469 "/>
<path style="fill:none;stroke-width:1.2;stroke-linecap:butt;stroke-linejoin:miter;stroke:rgb(0%,0%,0%);stroke-opacity:1;stroke-miterlimit:10;" d="M 225.800781 144.394531 L 225.1875 155.324219 "/>
<path style="fill:none;stroke-width:1.2;stroke-linecap:butt;stroke-linejoin:miter;stroke:rgb(0%,0%,100%);stroke-opacity:1;stroke-miterlimit:10;" d="M 225.1875 155.324219 L 224.570312 166.253906 "/>
<path style=" stroke:none;fill-rule:nonzero;fill:rgb(100%,100%,100%);fill-opacity:1;" d="M 241.347656 129.027344 L 249.347656 129.027344 L 249.347656 140.027344 L 241.347656 140.027344 Z M 241.347656 129.027344 "/>
<g style="fill:rgb(100%,0%,0%);fill-opacity:1;">
  <use xlink:href="#glyph0-1" x="241.347656" y="137.69043"/>
</g>
<path style="fill:none;stroke-width:1.2;stroke-linecap:butt;stroke-linejoin:miter;stroke:rgb(0%,0%,100%);stroke-opacity:1;stroke-miterlimit:10;" d="M 224.570312 166.253906 L 233.730469 172.253906 "/>
<path style="fill:none;stroke-width:1.2;stroke-linecap:butt;stroke-linejoin:miter;stroke:rgb(0%,0%,0%);stroke-opacity:1;stroke-miterlimit:10;" d="M 233.730469 172.253906 L 242.890625 178.25 "/>
<path style=" stroke:none;fill-rule:nonzero;fill:rgb(100%,100%,100%);fill-opacity:1;" d="M 217.570312 160.753906 L 231.570312 160.753906 L 231.570312 171.753906 L 217.570312 171.753906 Z M 217.570312 160.753906 "/>
<g style="fill:rgb(0%,0%,100%);fill-opacity:1;">
  <use xlink:href="#glyph0-2" x="217.570312" y="169.416992"/>
  <use xlink:href="#glyph0-3" x="224.547852" y="169.416992"/>
</g>
<path style="fill:none;stroke-width:1.2;stroke-linecap:butt;stroke-linejoin:miter;stroke:rgb(0%,0%,0%);stroke-opacity:1;stroke-miterlimit:10;" d="M 242.890625 178.25 L 264.75 179.480469 "/>
<path style="fill:none;stroke-width:1.2;stroke-linecap:butt;stroke-linejoin:miter;stroke:rgb(0%,0%,0%);stroke-opacity:1;stroke-miterlimit:10;" d="M 252.753906 197.796875 L 242.890625 178.25 "/>
<path style="fill:none;stroke-width:1.2;stroke-linecap:butt;stroke-linejoin:miter;stroke:rgb(0%,0%,0%);stroke-opacity:1;stroke-miterlimit:10;" d="M 264.75 179.480469 L 252.753906 197.796875 "/>
</g>
</svg>

<svg xmlns="http://www.w3.org/2000/svg" xmlns:xlink="http://www.w3.org/1999/xlink" width="300pt" height="300pt" viewBox="0 0 300 300"><defs><symbol overflow="visible"><path d="M.453 1.594v-7.938h4.5v7.938zm.5-.5h3.5v-6.938h-3.5zm0 0"/></symbol><symbol overflow="visible" id="a"><path d="M3.547-5.953c-.65 0-1.164.242-1.547.72-.375.48-.563 1.13-.563 1.952 0 .835.188 1.49.563 1.967.383.48.898.72 1.547.72.644 0 1.156-.24 1.53-.72.376-.476.564-1.132.564-1.968 0-.822-.187-1.474-.562-1.954-.375-.477-.887-.72-1.53-.72zm0-.734c.914 0 1.648.312 2.203.937.55.617.828 1.438.828 2.47 0 1.042-.277 1.87-.828 2.483-.555.617-1.29.922-2.203.922-.93 0-1.668-.305-2.22-.922C.774-1.41.5-2.237.5-3.28c0-1.033.273-1.853.828-2.47.55-.625 1.29-.938 2.22-.938zm0 0"/></symbol><symbol overflow="visible" id="b"><path d="M.89-6.563H2.08l2.906 5.485v-5.484h.86V0H4.656L1.75-5.484V0H.89zm0 0"/></symbol><symbol overflow="visible" id="c"><path d="M.89-6.563h.876v2.688H5v-2.688h.89V0H5v-3.125H1.766V0H.89zm0 0"/></symbol></defs><g><path fill="#fff" d="M0 0h300v300H0z"/><path d="M36.48 133.746l9.774-4.934" stroke-width="1.2" stroke="#f00" stroke-miterlimit="10" fill="none"/><path d="M46.254 128.813l9.773-4.934M35.25 155.605l.613-10.93" stroke-width="1.2" stroke="#000" stroke-miterlimit="10" fill="none"/><path d="M35.863 144.676l.617-10.93" stroke-width="1.2" stroke="#f00" stroke-miterlimit="10" fill="none"/><path d="M32.48 128.246h8v11h-8zm0 0" fill="#fff"/><use xlink:href="#a" x="32.48" y="136.909" fill="#f00"/><path d="M56.027 123.88l18.317 11.995M74.344 135.875l-.614 10.93" stroke-width="1.2" stroke="#000" stroke-miterlimit="10" fill="none"/><path d="M73.73 146.805l-.617 10.93" stroke-width="1.2" stroke="#00f" stroke-miterlimit="10" fill="none"/><path d="M74.344 135.875m2.87-.867l-.468-.93m3.344.067l-.942-1.864m3.813.997l-1.41-2.793m4.282 1.926l-1.88-3.722m4.755 2.86l-2.352-4.657m5.223 3.79l-2.82-5.586m5.69 4.722l-3.288-6.52m4.473 6.16l-3.485-6.897" stroke="#000" stroke-miterlimit="10" fill="none"/><path d="M73.113 157.734l-9.773 4.934" stroke-width="1.2" stroke="#00f" stroke-miterlimit="10" fill="none"/><path d="M63.34 162.668l-9.774 4.934" stroke-width="1.2" stroke="#000" stroke-miterlimit="10" fill="none"/><path d="M73.113 157.734l9.16 6" stroke-width="1.2" stroke="#00f" stroke-miterlimit="10" fill="none"/><path d="M82.273 163.734l9.16 5.996" stroke-width="1.2" stroke="#000" stroke-miterlimit="10" fill="none"/><path d="M70.113 152.234h7v11h-7zm0 0" fill="#fff"/><use xlink:href="#b" x="70.113" y="160.897" fill="#00f"/><path d="M53.566 167.602L35.25 155.605M91.434 169.73l-.618 10.93" stroke-width="1.2" stroke="#000" stroke-miterlimit="10" fill="none"/><path d="M90.816 180.66l-.613 10.934" stroke-width="1.2" stroke="#00f" stroke-miterlimit="10" fill="none"/><path d="M96.453 172.207l-.492 8.742" stroke-width="1.2" stroke="#000" stroke-miterlimit="10" fill="none"/><path d="M95.96 180.95l-.49 8.745" stroke-width="1.2" stroke="#00f" stroke-miterlimit="10" fill="none"/><path d="M110.98 159.867l-19.546 9.863" stroke-width="1.2" stroke="#000" stroke-miterlimit="10" fill="none"/><path d="M90.203 191.594l18.317 11.992" stroke-width="1.2" stroke="#00f" stroke-miterlimit="10" fill="none"/><path d="M87.203 186.094h7v11h-7zm0 0" fill="#fff"/><use xlink:href="#b" x="87.203" y="194.757" fill="#00f"/><path d="M108.52 203.586l9.773-4.93" stroke-width="1.2" stroke="#00f" stroke-miterlimit="10" fill="none"/><path d="M118.293 198.656l9.773-4.933" stroke-width="1.2" stroke="#000" stroke-miterlimit="10" fill="none"/><path d="M108.152 198l7.82-3.945" stroke-width="1.2" stroke="#00f" stroke-miterlimit="10" fill="none"/><path d="M115.973 194.055l7.816-3.946" stroke-width="1.2" stroke="#000" stroke-miterlimit="10" fill="none"/><path d="M105.52 198.086h7v11h-7zm0 0" fill="#fff"/><use xlink:href="#b" x="105.52" y="206.749" fill="#00f"/><path d="M128.066 193.723l1.23-21.864M129.297 171.86l-18.317-11.993M130.285 166.352l-14.652-9.598M148.844 161.996l-19.547 9.863M110.98 159.867l1.227-21.863M112.207 138.004l19.547-9.863M116.484 141.617l15.637-7.89M131.754 128.14l18.32 11.993M150.074 140.133l-1.23 21.863M144.805 142.03l-.985 17.49M150.074 140.133l19.547-9.863M169.62 130.27l18.317 11.996M174.273 127.16l14.653 9.594M170.848 108.406l-1.227 21.864M187.938 142.266l19.546-9.868M207.484 132.398l1.23-21.86M202.465 129.922l.98-17.488M207.484 132.398l18.317 11.997M208.715 110.54l-18.32-11.997M190.395 98.543l-19.547 9.863M190.762 104.13l-15.637 7.89M170.848 108.406L152.53 96.414M226.96 146.695l9.774-4.933" stroke-width="1.2" stroke="#000" stroke-miterlimit="10" fill="none"/><path d="M236.734 141.762l9.774-4.934" stroke-width="1.2" stroke="#f00" stroke-miterlimit="10" fill="none"/><path d="M224.64 142.094l9.774-4.934" stroke-width="1.2" stroke="#000" stroke-miterlimit="10" fill="none"/><path d="M234.414 137.16l9.774-4.93" stroke-width="1.2" stroke="#f00" stroke-miterlimit="10" fill="none"/><path d="M225.8 144.395l-.613 10.93" stroke-width="1.2" stroke="#000" stroke-miterlimit="10" fill="none"/><path d="M225.188 155.324l-.618 10.93" stroke-width="1.2" stroke="#00f" stroke-miterlimit="10" fill="none"/><path d="M241.348 129.027h8v11h-8zm0 0" fill="#fff"/><use xlink:href="#a" x="241.348" y="137.69" fill="#f00"/><path d="M224.57 166.254l9.16 6" stroke-width="1.2" stroke="#00f" stroke-miterlimit="10" fill="none"/><path d="M233.73 172.254l9.16 5.996" stroke-width="1.2" stroke="#000" stroke-miterlimit="10" fill="none"/><path d="M217.57 160.754h14v11h-14zm0 0" fill="#fff"/><g fill="#00f"><use xlink:href="#b" x="217.57" y="169.417"/><use xlink:href="#c" x="224.548" y="169.417"/></g><path d="M242.89 178.25l21.86 1.23M252.754 197.797l-9.863-19.547M264.75 179.48l-11.996 18.317" stroke-width="1.2" stroke="#000" stroke-miterlimit="10" fill="none"/></g></svg>
